priv/static/svgs/icons_new/controls-diagonals-outsight.svg

<svg width="32" height="32" viewBox="0 0 32 32" fill="none" xmlns="http://www.w3.org/2000/svg">
<path d="M6.50073 12.8316L6.50073 6.5L12.8341 6.5M6.5043 6.50074L25.5016 25.5M19.1675 25.4948H25.5008V19.1632M25.5007 12.8316V6.5L19.1674 6.5M25.4973 6.50073L6.5 25.5M12.8341 25.4948H6.50077V19.1632" stroke="black" stroke-linecap="round" stroke-linejoin="round"/>
</svg>

<svg width="32" height="32" viewBox="0 0 32 32" fill="none" xmlns="http://www.w3.org/2000/svg">
  <symbol id="item" viewBox="0 0 32 32" stroke-width="1" fill="none">
    <path d="M6.5 12.832V6.5h6.334m-6.33 0 18.998 19m-6.334-.005H25.5v-6.332m0-6.331V6.5h-6.334m6.33 0L6.5 25.5m6.334-.005H6.501v-6.332" stroke="currentColor" stroke-linecap="round" stroke-linejoin="round"/>
  </symbol>
</svg>
